src/extras-openmoji/symbol-other/1FBC6-200D-1F457.svg

<?xml version="1.0" encoding="UTF-8"?>
<svg id="emoji" xmlns="http://www.w3.org/2000/svg" viewBox="0 0 72 72">
  <g id="grid">
    <path d="m68,4v64H4V4h64Zm4-4H0v72h72V0Z" fill="#b3b3b3"/>
    <path d="m12.923,10.9583h46.1539c.51,0,.9992.2026,1.3598.5633.3607.3606.5633.8498.5633,1.3598v46.1538c0,.51-.2026.9992-.5633,1.3599-.3606.3606-.8498.5632-1.3598.5632H12.9231c-.51,0-.9992-.2026-1.3598-.5632-.3607-.3607-.5633-.8499-.5633-1.3599V12.8813c0-.51.2026-.9991.5632-1.3598.3607-.3606.8498-.5632,1.3598-.5632h0Z" fill="none" stroke="#00a5ff" stroke-miterlimit="10" stroke-width=".1"/>
    <path d="m53.7463,4H18.2537c-1.2447,0-2.2537,1.009-2.2537,2.2537v59.4926c0,1.2447,1.009,2.2537,2.2537,2.2537h35.4926c1.2447,0,2.2537-1.009,2.2537-2.2537V6.2537c0-1.2447-1.009-2.2537-2.2537-2.2537Z" fill="none" stroke="#00a5ff" stroke-miterlimit="10" stroke-width=".1"/>
    <path d="m68,53.7463V18.2537c0-1.2447-1.009-2.2537-2.2537-2.2537H6.2537c-1.2447,0-2.2537,1.009-2.2537,2.2537v35.4926c0,1.2447,1.009,2.2537,2.2537,2.2537h59.4926c1.2447,0,2.2537-1.009,2.2537-2.2537Z" fill="none" stroke="#00a5ff" stroke-miterlimit="10" stroke-width=".1"/>
    <path d="m36,65c16.0163,0,29-12.9837,29-29S52.0163,7,36,7,7,19.9837,7,36s12.9837,29,29,29Z" fill="none" stroke="#00a5ff" stroke-miterlimit="10" stroke-width=".1"/>
  </g>
  <g id="color">
    <polygon points="31.1073 20.3714 38.9727 20.3714 37.0269 35.0198 40.0279 62.59 30.4495 62.6174 33.4779 35.0198 31.1073 20.3714" fill="#fff"/>
  </g>
  <g id="line">
    <path d="m29.5,63.5l3-28.5" fill="none" stroke="#000" stroke-linecap="round" stroke-linejoin="round" stroke-width="2"/>
    <path d="m29.5,63.5h11.5" fill="none" stroke="#000" stroke-width="2"/>
    <path d="m41,63.5l-3-28.5" fill="none" stroke="#000" stroke-linecap="round" stroke-linejoin="round" stroke-width="2"/>
    <path d="m32.5,35l-2.5-16" fill="none" stroke="#000" stroke-width="2"/>
    <path d="m38,35l2-16" fill="none" stroke="#000" stroke-width="2"/>
    <circle cx="35" cy="11" r="3" fill="none" stroke="#000" stroke-width="2"/>
    <path d="m23,5l-1,10.5,8,4" fill="none" stroke="#000" stroke-linecap="round" stroke-linejoin="round" stroke-width="2"/>
    <path d="m47,5l1,10.5-8,4" fill="none" stroke="#000" stroke-linecap="round" stroke-linejoin="round" stroke-width="2"/>
    <path d="m30,19.5h10.5" fill="none" stroke="#000" stroke-width="2"/>
  </g>
</svg>

<svg id="emoji" viewBox="0 0 72 72" xmlns="http://www.w3.org/2000/svg">
  <g id="grid">
    <path fill="#B3B3B3" d="M68 4V68H4V4H68ZM72 0H0V72H72V0Z"/>
    <path fill="none" stroke="#00A5FF" stroke-miterlimit="10" stroke-width="0.1" d="M12.923 10.9583H59.0769C59.5869 10.9583 60.0761 11.1609 60.4367 11.5216C60.7974 11.8822 61 12.3714 61 12.8814V59.0352C61 59.5452 60.7974 60.0344 60.4367 60.3951C60.0761 60.7557 59.5869 60.9583 59.0769 60.9583H12.9231C12.4131 60.9583 11.9239 60.7557 11.5633 60.3951C11.2026 60.0344 11 59.5452 11 59.0352V12.8813C11 12.3713 11.2026 11.8822 11.5632 11.5215C11.9239 11.1609 12.413 10.9583 12.923 10.9583V10.9583Z"/>
    <path fill="none" stroke="#00A5FF" stroke-miterlimit="10" stroke-width="0.1" d="M53.7463 4H18.2537C17.009 4 16 5.00902 16 6.2537V65.7463C16 66.991 17.009 68 18.2537 68H53.7463C54.991 68 56 66.991 56 65.7463V6.2537C56 5.00902 54.991 4 53.7463 4Z"/>
    <path fill="none" stroke="#00A5FF" stroke-miterlimit="10" stroke-width="0.1" d="M68 53.7463V18.2537C68 17.009 66.991 16 65.7463 16L6.2537 16C5.00902 16 4 17.009 4 18.2537V53.7463C4 54.991 5.00902 56 6.2537 56L65.7463 56C66.991 56 68 54.991 68 53.7463Z"/>
    <path fill="none" stroke="#00A5FF" stroke-miterlimit="10" stroke-width="0.1" d="M36 65C52.0163 65 65 52.0163 65 36C65 19.9837 52.0163 7 36 7C19.9837 7 7 19.9837 7 36C7 52.0163 19.9837 65 36 65Z"/>
  </g>
  <g id="color"/>
  <g id="line">
    <path fill="none" stroke="#000" stroke-linecap="round" stroke-linejoin="round" stroke-width="2" d="M29.5 63.5L32.5 35"/>
    <path fill="none" stroke="#000" stroke-width="2" d="M29.5 63.5H41"/>
    <path fill="none" stroke="#000" stroke-linecap="round" stroke-linejoin="round" stroke-width="2" d="M41 63.5L38 35"/>
    <path fill="none" stroke="#000" stroke-width="2" d="M32.5 35L30 19"/>
    <path fill="none" stroke="#000" stroke-width="2" d="M38 35L40 19"/>
    <circle cx="35" cy="11" r="3" fill="none" stroke="#000" stroke-width="2"/>
    <path fill="none" stroke="#000" stroke-linecap="round" stroke-linejoin="round" stroke-width="2" d="M23 5L22 15.5L30 19.5"/>
    <path fill="none" stroke="#000" stroke-linecap="round" stroke-linejoin="round" stroke-width="2" d="M47 5L48 15.5L40 19.5"/>
    <path fill="none" stroke="#000" stroke-width="2" d="M30 19.5H40.5"/>
  </g>
</svg>
